src/img/icons/reddit.svg

<svg width="24" height="24" viewBox="0 0 24 24" fill="none" xmlns="http://www.w3.org/2000/svg">
    <path fill-rule="evenodd" clip-rule="evenodd" d="M24 12C24 18.6274 18.6274 24 12 24C5.37258 24 0 18.6274 0 12C0 5.37258 5.37258 0 12 0C18.6274 0 24 5.37258 24 12ZM18.2451 10.2454C19.2135 10.2454 19.9995 11.0314 19.9995 11.9998C19.9995 12.7156 19.5644 13.3331 18.9889 13.6138C19.017 13.7823 19.0311 13.9507 19.0311 14.1331C19.0311 16.8279 15.9012 19.0033 12.0276 19.0033C8.15389 19.0033 5.02408 16.8279 5.02408 14.1331C5.02408 13.9507 5.03811 13.7682 5.06618 13.5998C4.44864 13.3191 4.02759 12.7156 4.02759 11.9998C4.02759 11.0314 4.81355 10.2454 5.78197 10.2454C6.24513 10.2454 6.68021 10.4419 6.98898 10.7366C8.196 9.85243 9.86617 9.30507 11.7328 9.24892L12.617 5.06646C12.6451 4.98225 12.6872 4.91207 12.7574 4.86997C12.8276 4.82786 12.9118 4.81383 12.996 4.82786L15.9012 5.44541C16.0977 5.02435 16.5188 4.74365 17.01 4.74365C17.6977 4.74365 18.2591 5.30506 18.2591 5.99278C18.2591 6.6805 17.6977 7.2419 17.01 7.2419C16.3363 7.2419 15.789 6.70857 15.7609 6.04892L13.1644 5.50155L12.3644 9.24892C14.189 9.3191 15.8451 9.8805 17.0381 10.7366C17.3468 10.4279 17.7679 10.2454 18.2451 10.2454ZM9.24863 11.9998C8.56091 11.9998 7.99951 12.5612 7.99951 13.2489C7.99951 13.9367 8.56091 14.4981 9.24863 14.4981C9.93634 14.4981 10.4977 13.9367 10.4977 13.2489C10.4977 12.5612 9.93634 11.9998 9.24863 11.9998ZM12.0135 17.4595C12.4907 17.4595 14.1188 17.4033 14.9749 16.5472C15.1012 16.4209 15.1012 16.2244 15.003 16.084C14.8767 15.9577 14.6662 15.9577 14.5398 16.084C13.9925 16.6174 12.8556 16.8139 12.0276 16.8139C11.1995 16.8139 10.0486 16.6174 9.51529 16.084C9.38898 15.9577 9.17845 15.9577 9.05213 16.084C8.92582 16.2103 8.92582 16.4209 9.05213 16.5472C9.89424 17.3893 11.5363 17.4595 12.0135 17.4595ZM13.5012 13.2489C13.5012 13.9367 14.0626 14.4981 14.7504 14.4981C15.4381 14.4981 15.9995 13.9367 15.9995 13.2489C15.9995 12.5612 15.4381 11.9998 14.7504 11.9998C14.0626 11.9998 13.5012 12.5612 13.5012 13.2489Z" fill="currentColor" />
</svg>

<svg xmlns="http://www.w3.org/2000/svg" width="24" height="24" fill="none"><path fill="currentColor" fill-rule="evenodd" d="M24 12c0 6.6274-5.3726 12-12 12S0 18.6274 0 12 5.3726 0 12 0s12 5.3726 12 12Zm-5.7549-1.7546c.9684 0 1.7544.786 1.7544 1.7544 0 .7158-.4351 1.3333-1.0106 1.614.0281.1685.0422.3369.0422.5193 0 2.6948-3.1299 4.8702-7.0035 4.8702-3.8737 0-7.0035-2.1754-7.0035-4.8702 0-.1824.014-.3649.042-.5333-.6175-.2807-1.0385-.8842-1.0385-1.6 0-.9684.786-1.7544 1.7544-1.7544.4631 0 .8982.1965 1.207.4912 1.207-.8842 2.8772-1.4315 4.7438-1.4877l.8842-4.1824c.0281-.0842.0702-.1544.1404-.1965s.1544-.0562.2386-.0421l2.9052.6175c.1965-.421.6176-.7018 1.1088-.7018.6877 0 1.2491.5615 1.2491 1.2492 0 .6877-.5614 1.2491-1.2491 1.2491-.6737 0-1.221-.5333-1.2491-1.193l-2.5965-.5473-.8 3.7473c1.8246.0702 3.4807.6316 4.6737 1.4877.3087-.3087.7298-.4912 1.207-.4912Zm-8.9965 1.7544c-.6877 0-1.249.5614-1.249 1.2491 0 .6878.5613 1.2492 1.249 1.2492.6877 0 1.2491-.5614 1.2491-1.2492 0-.6877-.5614-1.2491-1.249-1.2491Zm2.7649 5.4597c.4772 0 2.1053-.0562 2.9614-.9123.1263-.1263.1263-.3228.0281-.4632-.1263-.1263-.3368-.1263-.4632 0-.5473.5334-1.6842.7299-2.5122.7299-.8281 0-1.979-.1965-2.5123-.7299-.1263-.1263-.3369-.1263-.4632 0-.1263.1263-.1263.3369 0 .4632.8421.8421 2.4842.9123 2.9614.9123Zm1.4877-4.2106c0 .6878.5614 1.2492 1.2492 1.2492.6877 0 1.2491-.5614 1.2491-1.2492 0-.6877-.5614-1.2491-1.2491-1.2491-.6878 0-1.2492.5614-1.2492 1.2491Z" clip-rule="evenodd"/></svg>
